X:1
T:Le célèbre Menuet d'Exaudet
T:Le célèbre Menuet d'Exaudet
T:Halfdan Kjerulf
C:Halvdan Kjerulf
%%score [ 1 2 3 4 ]
L:1/8
Q:1/4=100
M:3/4
K:C
V:1 treble-8 nm="Tenor 1"
V:2 treble-8 nm="Tenor 2"
V:3 bass nm="Baryton"
V:4 bass nm="Bass"
V:1
"^Allegretto""^Ten. I Mel." c c c4 | d d d4 | f4 e2 | d4 c2 | d2 B2 (ce) | d2 B2 (ce) | %6
w: Cet e- tang|qui s'et end|dans la|plai- ne|ré- pe- te _|les or- meaux _|
 g2 d f e e |"^Ten. I Mel." (ed c"^rit."B) (AG) |"^a tempo" c c c4 | d d d4 | f4 e2 | d4 c2 | %12
w: où le pam- pre s'en-|chai- * * * ne; _|un ciel pur,|un a- zur|sans nu-|a- ges|
 B d f d e c | g ^f =f g e g | f d (c2 B2) |1{cd} c4 z2 ||2 c4 z2!fine! ||!p! e e e e e e | f4 e2 | %19
w: vi- ve- ment s'y ré fle-|chit le tab- leau s'en ri-|chit d'i- ma- *|ges.|ges.|Mais tan- dis que l'on ad-|mi- re|
"^Ten. I Mel." f e d =c B g | e4 d2 |"^Ten. I Mel." e e e4 | d d d4 | (GA Bc) (de) | %24
w: cette onde où le ciel se|mi- re,|un ze- phir|vient ter- nir|sa _ _ _ sur- *|
 (^fg/f/ ed) g2 | d2 ^f2 g2 | (d2 ^f2) g2 | e e (d2 ^f>g) | (g=f"^dim." ed cB)!D.C.! :| %29
w: fa- * * * * ce:|l'é- clat de|tant _ d'ob-|jets s'ef- fa- * *|ce. _ _ _ _ _|
V:2
 G G G4 | G G G4 | c4 B2 | A4 G2 | G2 G2 G2 | G2 G2 G2 | d2 G G G c | F4 F2 |"^a tempo" E E E4 | %9
w: Cet e- tang|qui s'et end|dans la|plai- ne|ré- pe- te|les or- meaux|où le pam- pre s'en-|chai- ne;|un ciel pur,|
 G G G4 | c4 B2 | A4 G2 | B2 B2 c2 | B d f d e c | A f (e2 d2) |1 c4 z2 ||2 c4 z2 || %17
w: un a- zur|sans nu-|a- ges|s'y ré- fle-|chit le tab- leau s'en ri-|chit d'i- ma- *|ges.|ges.|
!p! c c c c c c | c4 c2 | A ^c d d d B | c4 (cB) |!p! d c B d c c | c B A c B B | %23
w: Mais tan- dis que l'on ad-|mi- re|cette onde où le ciel se|mi- re, _|un ze- phir vient ter- nir|un ze- phir vient ter- nir|
"^Ten. II Mel." c4 B2 | A4 G2 | c2 d2 d2 | (c2 d2) d2 | d c (B2 A>G) |"^dim." G6 :| %29
w: sa sur-|fa- ce:|l'é- clat de|tant _ d'ob-|jets s'ef- fa- * *|ce.|
V:3
 E, E, E,4 | F, F, F,4 | A,4 G,2 | F,4 E,2 | F,2 F,2 (E,G,) | F,2 F,2 (E,G,) | (G,B,) D B, C G, | %7
w: Cet e- tang|qui s'et end|dans la|plai- ne|ré- pe- te _|les or- meaux _|où _ le pam- pre s'en-|
 (A,2 G,2) (C,D,) |"^a tempo" z2 G, G, G,2 | z2 B, B, B,2 | A,4 G,2 | F,4 E,2 | G,2 G,2 G,2 | %13
w: chai- * ne; _|un ciel pur,|un a- zur|sans nu-|a- ges|le ta- bleau|
 (G,2 B,2) G,2 | A, A, G,4 |1 E,4 z2 ||2 E,4 z2 ||"^B. I Mel." G, E, C, E, G, C | A,4 G,2 | %19
w: s'en _ ri-|chit d'i- ma-|ges.|ges.|Mais tan- dis que l'on ad-|mi- re|
 F, G, A, A, G, G, | G,4 G,2 |!pp! B, C D B, A, A, | A, B, C A, G, G, | G,4 G,2 | D,4 D,2 | %25
w: cette onde où le ciel se|mi- re,|un ze- phir vient ter- nir|un ze- phir vient ter- nir|sa sur-|fa- ce:|
 ^F, A, C A, B, G, | ^F, A, C A, B, G, | G, G, (G,2 C>B,) | (B,A,"^dim." G,=F, E,D,) :| %29
w: d'un souffle il con- fond les|traits, l'e- clat de tant d'ob-|jets s'ef- fa- * *|ce. _ _ _ _ _|
V:4
 z2 C, E, G,2 | z2 B,, D, G,2 | z6 | (C,B,,) (A,,B,,) (C,E,) | B,, D, F, D, E, C, | %5
w: Cet e- tang|qui s'et end||dans _ la _ plaine _|rép- ete au sein de ses|
 B,, D, F, D, E, C, | B,, D, F, D, E, C, | (F,,2 G,,2) (A,,B,,) |"^a tempo" z2 C, C, C,2 | %9
w: eaux les ver- doy- ants or-|meaux, où le pam- pre s'en-|chai- * ne; _|un ciel pur,|
 z2 G,, G,, G,,2 | z2 G,,2 G,,2 | (C,B,, A,,B,,) (C,E,) | D,2 G,,2 (C,E,) | (D,2 G,,2) (C,E,) | %14
w: un a- zur|sans nu-|a- * * * ges _|le ta- bleau _|s'en _ ri- *|
 F, F, (G,2 G,,2) |1 (C,E,) G, F, E, D, ||2 C,4 z2 || C,4 C,2 | (C,A,,) F,, A,, C, E, | %19
w: chit d'i- ma- *|ges. _ Mais tan- dis que|ges.|l'on ad-|mi- * re cette on- de|
 D, E, F, ^F, G, G,, | (C,D, E,F,) G,2 |!pp! ^G, A, B, G, A, =G, | ^F, G, A, F, G, =F, | E,4 D,2 | %24
w: cette onde où le ciel se|mi- * * * re,|un ze- phir vient ter- nir|un ze- phir vient ter- nir|sa sur-|
 C,4 B,,2 | A,,2 A,,2 (G,,B,,) | A,,4 (G,,B,,) | C, C, ((D,2 D,>)G,,) |"^dim." G,,6 :| %29
w: fa- ce:|l'é- clat de _|tant d'ob- *|jets s'ef- fa- * *|ce.|

